icons/align-center.svg

<svg xmlns="http://www.w3.org/2000/svg" width="24" height="24" viewBox="0 0 24 24">
    <path fill="#3A3A47" fill-rule="evenodd" d="M15 17c.667.006 1 .341 1 1.005 0 .663-.333.995-1 .995H9c-.668 0-1.001-.333-1-1 .001-.667.336-1 1.003-1zM4.998 13H19c.667 0 1 .333 1 1 0 .619-.287.95-.862.995L19 15H5c-.666 0-1-.332-1-1 0-.62.286-.952.86-.995L4.998 13H19zM15 9c.667 0 1 .332 1 1 0 .62-.287.952-.862.995L15 11H9c-.666 0-.999-.333-1-1 0-.619.286-.95.86-.995L8.996 9H15zm3.995-4c.669 0 1.003.333 1.005 1 .001.619-.286.95-.862.995L19 7H5c-.666 0-1-.333-1-1 0-.619.287-.95.862-.995L4.999 5h13.996z"/>
</svg>

<svg width="24" height="24" viewBox="0 0 24 24" fill="none" xmlns="http://www.w3.org/2000/svg">
<path d="M5 7C4.334 7 4 6.667 4 6C4 5.333 4.333 5 5 5H18.995C19.664 5 19.998 5.333 20 6C20.002 6.667 19.668 7 19 7H5ZM9 11C8.334 11 8.001 10.667 8 10C7.999 9.333 8.331 9 8.997 9H15C15.667 9 16 9.332 16 10C16 10.668 15.667 11 15 11H9ZM5 15C4.334 15 4 14.668 4 14C4 13.332 4.332 13 4.998 13H19C19.667 13 20 13.333 20 14C20 14.667 19.667 15 19 15H5ZM9 19C8.332 19 7.999 18.667 8 18C8.001 17.333 8.336 17 9.003 17H15C15.667 17.006 16 17.341 16 18.005C16 18.668 15.667 19 15 19H9Z" fill="#3A3A47"/>
</svg>
